assets/ionicons/svg/play-forward-circle-outline.svg

<svg xmlns="http://www.w3.org/2000/svg" class="ionicon" viewBox="0 0 512 512"><title>Play Forward Circle</title><path d="M448 256c0-106-86-192-192-192S64 150 64 256s86 192 192 192 192-86 192-192z" fill="none" stroke="currentColor" stroke-miterlimit="10" stroke-width="32"/><path d="M394.77 246.7l-114.45-69.14a10.78 10.78 0 00-16.32 9.31v53.32l-103.68-62.63a10.78 10.78 0 00-16.32 9.31v138.26a10.78 10.78 0 0016.32 9.31L264 271.81v53.32a10.78 10.78 0 0016.32 9.31l114.45-69.14a10.89 10.89 0 000-18.6z"/></svg>

<svg xmlns="http://www.w3.org/2000/svg" width="512" height="512" viewBox="0 0 512 512"><title>ionicons-v5-c</title><path d="M448,256c0-106-86-192-192-192S64,150,64,256s86,192,192,192S448,362,448,256Z" style="fill:none;stroke:#000;stroke-miterlimit:10;stroke-width:32px"/><path d="M394.77,246.7,280.32,177.56A10.78,10.78,0,0,0,264,186.87v53.32L160.32,177.56A10.78,10.78,0,0,0,144,186.87V325.13a10.78,10.78,0,0,0,16.32,9.31L264,271.81v53.32a10.78,10.78,0,0,0,16.32,9.31L394.77,265.3A10.89,10.89,0,0,0,394.77,246.7Z"/></svg>
